X: 387
%%etbk:tnset id:147,pos:2,rep:3x,ant:
%%etbk:tnset id:366,pos:2,rep:3x,ant:
%%etbk:wsite http://thesession.org/tunes/2410
%%etbk:pldat 2016-08-18T18:14,2016-08-17T15:30,2016-08-16T15:28,2016-08-15T18:39,2016-08-12T16:18,2016-08-11T18:12,2016-08-10T15:28,2016-08-09T16:11,2016-08-08T18:10,2016-08-06T10:59,2016-06-09T19:33,2016-06-08T17:01,2016-06-07T17:05,2016-06-04T16:15,2016-06-01T15:10,2016-05-30T18:18,2016-05-19T19:23,2016-05-18T15:38,2016-05-17T17:03,2016-05-16T15:26,2016-05-15T15:13,2016-05-14T16:56,2016-05-11T17:04,2016-05-10T19:09,2016-03-02T17:08,2016-03-01T16:24,2016-02-27T14:17,2016-02-22T18:17,2015-11-20T17:32,2015-11-18T17:10,2015-11-17T17:08,2015-11-15T15:18,2015-11-14T15:50,2015-11-11T15:16,2015-11-10T17:45,2015-11-08T14:08,2015-09-10T16:17,2015-09-09T16:31,2015-09-08T18:51,2015-09-03T16:23,2015-09-02T16:21,2015-09-01T16:18,2015-08-31T18:39,2015-08-30T14:35,2015-08-28T18:45,2015-08-26T15:42,2015-08-06T17:28,2015-08-05T16:02,2015-08-04T16:27,2015-08-03T18:11,2015-08-02T11:01,2015-08-01T15:54,2015-07-30T17:55,2015-07-25T13:48,2015-07-22T16:02,2015-06-24T18:36,2015-06-18T18:06,2015-06-16T16:14,2015-05-07T18:58,2015-04-16T19:07,2015-04-15T16:27,2015-04-13T18:45,2015-04-12T11:13,2015-04-11T14:28,2015-04-08T17:06,2015-03-19T18:58,2015-03-16T19:10,2015-03-15T13:58,2015-03-11T15:43,2015-03-06T18:03,2015-03-05T18:41,2015-03-04T16:14,2015-02-22T15:21,2015-02-21T16:38,2015-02-19T18:54,2015-02-18T15:50,2015-02-17T16:02,2015-02-13T18:14,2015-02-10T17:23,2015-02-03T17:32,2015-02-02T18:37,2015-01-31T15:57,2015-01-27T17:45,2015-01-26T18:45,2015-01-21T17:24,2015-01-14T15:51,2015-01-13T17:29,2015-01-12T18:07,2015-01-08T17:54,2015-01-07T15:36,2015-01-06T18:27,2015-01-05T18:25,2014-12-30T17:15,2014-12-29T16:33,2014-12-28T14:06,2014-12-27T13:57,2014-12-26T15:57,2014-12-20T14:03,2014-12-17T19:15,2014-12-15T16:11,2014-12-14T15:12,2014-12-13T16:45,2014-12-10T16:17,2014-12-09T16:39,2014-12-06T15:15,2014-12-04T18:57,2014-12-01T18:49,2014-11-30T15:07,2014-11-26T15:37,2014-10-15T18:21,2014-10-12T14:49,2014-09-24T17:10,2014-04-12T11:47,2014-04-06T11:23,2014-03-27T18:34,2014-03-05T18:25,2014-03-03T17:55,2014-03-02T14:15,2014-02-25T18:16,2014-02-23T09:37,2014-01-30T18:27,2014-01-29T16:31,2014-01-22T16:28,2014-01-21T17:31,2014-01-19T13:47,2014-01-18T14:22,2014-01-14T18:33,2014-01-08T15:44,2014-01-03T16:24,2013-12-29T12:14,2013-12-28T14:38,2013-12-27T16:54,2013-12-17T16:19,2013-10-15T18:51,2013-10-11T18:16,2013-09-27T16:49,2013-05-15T15:33,2013-04-30T16:40
T: Farewell To Whalley Range
Z: Piano Box Version by Martin Fleischmann
H: Created 2013-02-19 /  Last Modified 2013-02-19
R: slip jig
M: 9/8
L: 1/8
K: F#min
|: "f#m"!2!F2!5!c !4!B!3!A!2!F FF!1!E | !2!F2!4!c !1!B!2!c!3!e !4!f!3!e!2!c | "bm"!1!B2!2!B BAB !3!cBA |1 !2!B3 BAB !3!cB!1!A:|2 !2!B3 BAB !3!c!5!e!3!f||
|: "f#m"!5!a2!3!f !3!f!1!e!2!c !4!f!3!e!2!c | "bm"!1!B2!2!B !2!BAB !3!c!5!e!3!f | "f#m"!5!a2!4!a !5!b!4!a!3!f !4!a!3!f!1!e|1 !3!f!1!e!2!c !1!Bce !4!fe!2!c :|2 !3!f!1!e!2!c !4!f!3!e!2!c !1!B!3!A!4!B ||


